X:2
T:Kit O'Connor's
S:irtrad-l 2001-4-24
R:reel
S:Tommy Peoples
D:The Iron Man, Shanachie 7904
Z:Philippe Varlet
M:C|
L:1/8
Q:220
K:A
~E3 F ABcd | eA{d}cA {d}BAFA | ~E3 F ABcA | BF (3FFF BFAF |
~E2 CE A,2 CE | dc{d}cA {d}BAFE | CE~E2 Acfc |1 ecBc +A3A3+ F :|2 ecBc +A3A3+ f ||
eAcA EAcf | eAcA {Bc}BAFA | ec (3ccc ecac | ecAc Bcdf |
ec~c2 acfc | ecAc {Bc}BAFA | af{a}fe ~f2 af | eAcA BcAf |
eAcA EAcf | eAcA {Bc}BAFA | ec (3ccc ac (3ccc | ecAc Bcdf |
ec~c2 cafc | ecAc {Bc}BAFA | aAgA fAaf | eAcA BcAF ||
